artwork/resources/intui/icons/shell/tool-windows/captures@20x20.svg

<svg width="20" height="20" viewBox="0 0 20 20" fill="none" xmlns="http://www.w3.org/2000/svg">
<circle cx="14" cy="13" r="3.25" stroke="#6C707E" stroke-width="1.5"/>
<path d="M2 13V4.5C2 3.67157 2.67157 3 3.5 3H14" stroke="#6C707E" stroke-width="1.5" stroke-linecap="round"/>
<path d="M16.5 15.5L19 18" stroke="#6C707E" stroke-width="1.5" stroke-linecap="round"/>
<path fill-rule="evenodd" clip-rule="evenodd" d="M5.5 14.5V6.5H15.5V7.70703C16.0381 7.85921 16.5426 8.09123 17 8.38947V6C17 5.44772 16.5523 5 16 5H5C4.44772 5 4 5.44771 4 6V15C4 15.5523 4.44772 16 5 16H9.38947C9.09123 15.5426 8.85921 15.0381 8.70703 14.5H5.5Z" fill="#6C707E"/>
</svg>

<svg width="20" height="20" viewBox="0 0 20 20" fill="none" xmlns="http://www.w3.org/2000/svg"><circle cx="14" cy="13" r="3.25" stroke="#6C707E" stroke-width="1.5"/><path d="M2 13V4.5A1.5 1.5 0 0 1 3.5 3H14M16.5 15.5L19 18" stroke="#6C707E" stroke-width="1.5" stroke-linecap="round"/><path fill-rule="evenodd" clip-rule="evenodd" d="M5.5 14.5v-8h10v1.207a5.472 5.472 0 0 1 1.5.682V6a1 1 0 0 0-1-1H5a1 1 0 0 0-1 1v9a1 1 0 0 0 1 1h4.39a5.472 5.472 0 0 1-.683-1.5H5.5z" fill="#6C707E"/></svg>
